img/svg/instagram.svg

<svg width="28" height="28" viewBox="0 0 28 28" fill="none" xmlns="http://www.w3.org/2000/svg">
<path d="M15.36 0.666992C17.76 0.666992 18.267 0.693992 19.493 0.746992C20.906 0.813992 21.88 1.03999 22.72 1.37399C23.6 1.70699 24.347 2.17399 25.08 2.90699C25.827 3.63999 26.28 4.38699 26.627 5.26699C26.96 6.10699 27.174 7.07999 27.24 8.50699C27.307 9.77399 27.32 10.267 27.32 12.934V15.067C27.32 17.734 27.307 18.227 27.24 19.494C27.217 20.659 26.994 21.764 26.604 22.788L26.626 22.721C26.279 23.601 25.826 24.348 25.093 25.081C24.346 25.828 23.6 26.281 22.72 26.628C21.88 26.961 20.907 27.175 19.493 27.241C18.226 27.308 17.72 27.321 15.053 27.321H12.933C10.266 27.321 9.77302 27.308 8.49302 27.241C7.32802 27.218 6.22302 26.995 5.19902 26.605L5.26602 26.627C4.34302 26.274 3.55602 25.753 2.90702 25.094L2.90602 25.093C2.24002 24.441 1.71402 23.649 1.37402 22.764L1.35902 22.719C0.992025 21.763 0.769025 20.657 0.746025 19.502V19.492C0.693025 18.45 0.663025 17.229 0.663025 16.002C0.663025 15.776 0.664025 15.55 0.666025 15.325V15.359V12.626C0.666025 10.226 0.693025 9.71899 0.746025 8.49299C0.813025 7.07999 1.03902 6.10599 1.35902 5.26599C1.70602 4.38599 2.15902 3.63899 2.90602 2.90599C3.55102 2.23899 4.34002 1.71599 5.22302 1.38699L5.26602 1.37299C6.22102 1.00199 7.32603 0.773992 8.48102 0.746992H8.49302C9.72003 0.693992 10.226 0.666992 12.626 0.666992H15.36ZM15.387 3.06699H12.6C10.293 3.06699 9.80002 3.09399 8.60003 3.14699C7.30702 3.19999 6.60003 3.41399 6.13303 3.59999C5.50603 3.83999 5.06602 4.13299 4.60002 4.59999C4.13402 5.06699 3.84002 5.50699 3.60002 6.13299C3.42702 6.59999 3.20002 7.30599 3.14702 8.61299C3.09402 9.81299 3.06702 10.293 3.06702 12.613V15.386C3.06702 17.706 3.09402 18.186 3.14702 19.386C3.20002 20.679 3.41402 21.386 3.60002 21.853C3.84002 22.48 4.13302 22.92 4.60002 23.386C5.06702 23.852 5.50703 24.146 6.13303 24.386C6.60003 24.573 7.30602 24.786 8.61302 24.839C9.90602 24.906 10.373 24.919 13.253 24.919H14.733C17.626 24.919 18.08 24.906 19.386 24.839C20.679 24.786 21.386 24.572 21.853 24.386C22.48 24.146 22.92 23.853 23.386 23.386C23.852 22.919 24.146 22.479 24.386 21.853C24.573 21.386 24.786 20.68 24.839 19.386C24.906 18.079 24.919 17.626 24.919 14.733V13.266C24.919 10.373 24.906 9.90599 24.839 8.59899C24.786 7.30599 24.572 6.59899 24.386 6.13199C24.16 5.53099 23.819 5.01799 23.387 4.59999L23.386 4.59899C22.966 4.16599 22.454 3.82499 21.881 3.60799L21.853 3.59899C21.121 3.32299 20.275 3.15799 19.391 3.14599H19.386C18.358 3.09399 17.155 3.06399 15.944 3.06399C15.748 3.06399 15.552 3.06499 15.356 3.06599H15.386L15.387 3.06699ZM14 7.14699C17.781 7.14699 20.847 10.212 20.847 13.994C20.847 17.776 17.782 20.841 14 20.841C10.219 20.841 7.15302 17.776 7.15302 13.994C7.15302 10.212 10.218 7.14699 14 7.14699ZM14 9.54699C11.544 9.54699 9.55303 11.538 9.55303 13.994C9.55303 16.45 11.544 18.441 14 18.441C16.456 18.441 18.447 16.45 18.447 13.994C18.447 11.538 16.456 9.54699 14 9.54699ZM21.107 5.27999C21.991 5.27999 22.707 5.99599 22.707 6.87999C22.707 7.76399 21.991 8.47999 21.107 8.47999C20.223 8.47999 19.507 7.76399 19.507 6.87999C19.507 5.99599 20.223 5.27999 21.107 5.27999Z" fill="black"/>
</svg>

<svg xmlns="http://www.w3.org/2000/svg" width="28" height="28" fill="none"><path fill="#000" d="M15.36.667c2.4 0 2.907.027 4.133.08 1.413.067 2.387.293 3.227.627.88.333 1.627.8 2.36 1.533.747.733 1.2 1.48 1.547 2.36.333.84.547 1.813.613 3.24.067 1.267.08 1.76.08 4.427v2.133c0 2.667-.013 3.16-.08 4.427a9.763 9.763 0 0 1-.636 3.294l.022-.067c-.347.88-.8 1.627-1.533 2.36a6.632 6.632 0 0 1-2.373 1.547c-.84.333-1.813.547-3.227.613-1.267.067-1.773.08-4.44.08h-2.12c-2.667 0-3.16-.013-4.44-.08a9.763 9.763 0 0 1-3.294-.636l.067.022a6.575 6.575 0 0 1-2.359-1.533l-.001-.001a6.544 6.544 0 0 1-1.532-2.329l-.015-.045a9.59 9.59 0 0 1-.613-3.217v-.01a70.693 70.693 0 0 1-.08-4.167v.034-2.733c0-2.4.027-2.907.08-4.133.067-1.413.293-2.387.613-3.227.347-.88.8-1.627 1.547-2.36a6.27 6.27 0 0 1 2.317-1.519l.043-.014A9.576 9.576 0 0 1 8.481.747h.012c1.227-.053 1.733-.08 4.133-.08h2.734Zm.027 2.4H12.6c-2.307 0-2.8.027-4 .08-1.293.053-2 .267-2.467.453a4.068 4.068 0 0 0-1.533 1c-.466.467-.76.907-1 1.533-.173.467-.4 1.173-.453 2.48-.053 1.2-.08 1.68-.08 4v2.773c0 2.32.027 2.8.08 4 .053 1.293.267 2 .453 2.467.24.627.533 1.067 1 1.533.467.466.907.76 1.533 1 .467.187 1.173.4 2.48.453 1.293.067 1.76.08 4.64.08h1.48c2.893 0 3.347-.013 4.653-.08 1.293-.053 2-.267 2.467-.453a4.068 4.068 0 0 0 1.533-1c.466-.467.76-.907 1-1.533.187-.467.4-1.173.453-2.467.067-1.307.08-1.76.08-4.653v-1.467c0-2.893-.013-3.36-.08-4.667-.053-1.293-.267-2-.453-2.467a4.142 4.142 0 0 0-.999-1.532l-.001-.001a4.141 4.141 0 0 0-1.505-.991l-.028-.009a7.322 7.322 0 0 0-2.462-.453h-.005a70.03 70.03 0 0 0-4.03-.08h.03l.001.001ZM14 7.147a6.847 6.847 0 1 1 0 13.694 6.847 6.847 0 0 1 0-13.694Zm0 2.4a4.447 4.447 0 1 0 0 8.894 4.447 4.447 0 0 0 0-8.894Zm7.107-4.267a1.6 1.6 0 1 1 0 3.2 1.6 1.6 0 0 1 0-3.2Z"/></svg>
